packages/core/src/svgs/tokens/mono/ILV.svg

<svg width="24" height="24" viewBox="0 0 24 24" fill="none" xmlns="http://www.w3.org/2000/svg">
<path d="M7.4323 9.75671C7.36204 9.68107 7.3242 9.6108 7.39987 9.51351C8.42322 8.21044 9.13007 6.68758 9.46473 5.06486C9.59993 4.41081 9.64848 3.74595 9.70259 3.08649C9.72958 2.72433 9.75657 2.36217 9.79984 2H9.83767V10.2703C9.83225 11.3135 9.81611 14.2161 9.83767 15.9135L9.85394 16.8865L9.86479 17.5513C9.87009 17.9675 9.9836 18.3513 10.2647 18.6757C10.362 18.7892 10.4539 18.908 10.535 19.0324C10.6215 19.1567 10.6215 19.2757 10.4809 19.3729C9.37603 20.1601 8.291 20.9747 7.22689 21.8162L7.13501 21.8541C7.3296 21.427 7.46474 21.0269 7.60527 20.6324V20.6216C8.04245 19.2898 8.24902 17.8932 8.21608 16.4918V14.3675L8.2215 12.1892C8.21067 11.3622 8.03771 10.3784 7.4323 9.75671ZM14.162 13.6379V6.73513C14.1729 5.91892 14.1675 5.08108 14.162 4.24865V2H14.2107C14.3349 3.20541 14.4702 4.41081 14.7404 5.59459C15.0546 6.92929 15.6316 8.18801 16.4377 9.29729C16.6647 9.6162 16.6647 9.62161 16.4377 9.91348L16.4269 9.92433C15.9404 10.5459 15.7891 11.4161 15.7891 12.1892L15.7836 16.4864C15.7836 17.7405 16.0485 18.9189 16.3242 20.1351L16.4323 20.6216C16.5134 20.9838 16.7026 21.4864 16.8648 21.8487C16.7891 21.8541 16.7513 21.8215 16.7134 21.7837L16.6917 21.7676C15.7188 20.9999 14.5513 20.0918 13.5351 19.3783C13.3837 19.2757 13.362 19.1622 13.4594 19.0215C13.4918 18.9676 13.5296 18.9189 13.5729 18.8702C13.7757 18.654 13.9326 18.3987 14.0339 18.1199C14.1352 17.8411 14.1788 17.5447 14.162 17.2486V13.627V13.6379ZM8.21608 22V21.9729C8.78905 21.5514 9.36744 21.1513 9.94576 20.7514C10.562 20.3351 11.1728 19.9135 11.7728 19.4649C11.8368 19.4099 11.916 19.376 11.9999 19.3675C12.0755 19.3675 12.1458 19.4053 12.2269 19.4649C12.8269 19.9135 13.4377 20.3297 14.0485 20.7514C14.6324 21.1513 15.2106 21.5514 15.7836 21.9729V22C15.7729 21.9945 15.7621 21.989 15.7512 21.9837L15.6864 21.9513C14.5502 21.3396 13.2892 20.9957 11.9999 20.946C10.7945 20.946 9.36203 21.3946 8.31338 21.9513L8.25392 21.9837C8.24125 21.989 8.22863 21.9945 8.21608 22Z" fill="white"/>
</svg>

<svg xmlns="http://www.w3.org/2000/svg" width="24" height="24" fill="none" viewBox="0 0 24 24">
    <path fill="#fff" d="M7.432 9.757c-.07-.076-.108-.146-.032-.243a10.7 10.7 0 0 0 2.065-4.45c.135-.653.183-1.318.238-1.978.027-.362.054-.724.097-1.086h.038v8.27a376 376 0 0 0 0 5.644l.016.973.01.664c.006.417.12.8.4 1.125q.148.17.271.356c.086.125.086.244-.054.34a81 81 0 0 0-3.254 2.444l-.092.038c.195-.427.33-.827.47-1.222v-.01a12.3 12.3 0 0 0 .611-4.13v-2.125l.006-2.178c-.011-.827-.184-1.81-.79-2.432m6.73 3.88V6.736c.01-.816.005-1.654 0-2.486V2h.049c.124 1.205.26 2.41.53 3.595a10.3 10.3 0 0 0 1.697 3.702c.227.32.227.325 0 .616l-.011.011c-.487.622-.638 1.492-.638 2.265l-.005 4.297c0 1.255.264 2.433.54 3.65l.108.486c.081.362.27.864.433 1.227-.076.005-.114-.027-.152-.065l-.021-.016c-.973-.768-2.14-1.676-3.157-2.39-.151-.102-.173-.216-.076-.357a1 1 0 0 1 .114-.15 2.2 2.2 0 0 0 .589-1.622v-3.622zM8.216 22v-.027a72 72 0 0 1 1.73-1.222 47 47 0 0 0 1.827-1.286.4.4 0 0 1 .227-.098c.075 0 .146.038.227.098.6.448 1.21.865 1.822 1.286.583.4 1.162.8 1.735 1.222V22l-.033-.016-.065-.033A8.5 8.5 0 0 0 12 20.946c-1.206 0-2.638.449-3.687 1.005l-.06.033z"/>
</svg>
